Breeze Round Light/actions/24/kdenlive-show-video.svg

<svg xmlns="http://www.w3.org/2000/svg" viewBox="0 0 24 24" width="24" height="24">
  <defs id="defs3051">
    <style type="text/css" id="current-color-scheme">.ColorScheme-Text {color:#fcfcfc;}</style>
  </defs>
  <g transform="translate(1,1)">
    <path style="fill:currentColor;fill-opacity:1;stroke:none" d="m 3,6 c 0,3.3333333 0,6.666667 0,10 0,3 3,3 3,3 h 10 c 0,0 3,0 3,-3 C 19,13 19,9 19,6 19,3 16,3 16,3 H 6 C 6,3 3,3 3,6 Z M 6,4 H 16 V 9.9003906 H 6 Z M 4,5 H 5 V 6 H 4 Z m 13,0 h 1 V 6 H 17 Z M 4,7 H 5 V 8 H 4 Z m 13,0 h 1 V 8 H 17 Z M 4,9 h 1 v 1 H 4 Z m 13,0.099609 h 1 V 10.099609 H 17 Z M 4,12 h 1 v 1 H 4 Z m 2,0 h 10 v 6 H 6 Z m 11,0 h 1 v 1 H 17 Z M 4,14 h 1 v 1 H 4 Z m 13,0 h 1 v 1 H 17 Z M 4,16 h 1 v 1 H 4 Z m 13,0 h 1 v 1 h -1 z" class="ColorScheme-Text"/>
  </g>
</svg>

<svg xmlns="http://www.w3.org/2000/svg" viewBox="0 0 24 24">
  <defs id="defs3051">
    <style type="text/css" id="current-color-scheme">
      .ColorScheme-Text {
        color:#232629;
      }
      </style>
  </defs><g transform="translate(1,1)">
 <path 
     style="fill:currentColor;fill-opacity:1;stroke:none" 
     d="M 3 3 L 3 19 L 19 19 L 19 3 L 3 3 z M 6 4 L 16 4 L 16 9.9003906 L 6 9.9003906 L 6 4 z M 4 5 L 5 5 L 5 6 L 4 6 L 4 5 z M 17 5 L 18 5 L 18 6 L 17 6 L 17 5 z M 4 7 L 5 7 L 5 8 L 4 8 L 4 7 z M 17 7 L 18 7 L 18 8 L 17 8 L 17 7 z M 4 9 L 5 9 L 5 10 L 4 10 L 4 9 z M 17 9.0996094 L 18 9.0996094 L 18 10.099609 L 17 10.099609 L 17 9.0996094 z M 4 12 L 5 12 L 5 13 L 4 13 L 4 12 z M 6 12 L 16 12 L 16 18 L 6 18 L 6 12 z M 17 12 L 18 12 L 18 13 L 17 13 L 17 12 z M 4 14 L 5 14 L 5 15 L 4 15 L 4 14 z M 17 14 L 18 14 L 18 15 L 17 15 L 17 14 z M 4 16 L 5 16 L 5 17 L 4 17 L 4 16 z M 17 16 L 18 16 L 18 17 L 17 17 L 17 16 z "
     class="ColorScheme-Text"
     />
</g></svg>
